packages/icons/svgs/duotone/Source=trash.svg

<svg width="24" height="24" viewBox="0 0 24 24" fill="none" xmlns="http://www.w3.org/2000/svg">
<g clip-path="url(#clip0_1606_998)">
<path fill-rule="evenodd" clip-rule="evenodd" d="M5 8V21C5 21.2652 5.10536 21.5196 5.29289 21.7071C5.48043 21.8946 5.73478 22 6 22H18C18.2652 22 18.5196 21.8946 18.7071 21.7071C18.8946 21.5196 19 21.2652 19 21V8H21V21C21 21.7957 20.6839 22.5587 20.1213 23.1213C19.5587 23.6839 18.7957 24 18 24H6C5.20435 24 4.44129 23.6839 3.87868 23.1213C3.31607 22.5587 3 21.7957 3 21V8H5Z" fill="black" style="fill:black;fill-opacity:1;"/>
<path fill-rule="evenodd" clip-rule="evenodd" d="M0 4H24V6H0V4Z" fill="black" style="fill:black;fill-opacity:1;"/>
<path fill-rule="evenodd" clip-rule="evenodd" d="M7 0H17V6H15V2H9V6H7V0Z" fill="black" style="fill:black;fill-opacity:1;"/>
<g opacity="0.55">
<path fill-rule="evenodd" clip-rule="evenodd" d="M16.4142 11.985L9.00003 19.3992L7.58582 17.985L15 10.5708L16.4142 11.985Z" fill="black" style="fill:black;fill-opacity:1;"/>
<path fill-rule="evenodd" clip-rule="evenodd" d="M9.00003 10.5708L16.4142 17.985L15 19.3992L7.58582 11.985L9.00003 10.5708Z" fill="black" style="fill:black;fill-opacity:1;"/>
</g>
</g>
<defs>
<clipPath id="clip0_1606_998">
<rect width="24" height="24" fill="white" style="fill:white;fill-opacity:1;"/>
</clipPath>
</defs>
</svg>

<svg xmlns="http://www.w3.org/2000/svg" width="24" height="24" viewBox="0 0 24 24"><g fill-rule="evenodd" clip-path="url(#a)" clip-rule="evenodd"><path d="M5 8v13a1 1 0 0 0 1 1h12a1 1 0 0 0 1-1V8h2v13a3 3 0 0 1-3 3H6a3 3 0 0 1-3-3V8zM0 4h24v2H0z"/><path d="M7 0h10v6h-2V2H9v4H7z"/><g opacity=".55"><path d="M16.414 11.985 9 19.399l-1.414-1.414L15 10.571z"/><path d="m9 10.57 7.414 7.415L15 19.399l-7.414-7.414z"/></g></g><defs><clipPath id="a"><path fill="#fff" d="M0 0h24v24H0z"/></clipPath></defs></svg>
